X: 1
T:Drowsy Maggie
R:Reel
O:Scotland
O:Ireland
O:England
M:4/4
K:EDor
E2BE dEBE|E2BE AFDF|E2BE dEBE|BABc dBAF:|\
d2fd cdec|defd faaf|
d2fd cdec|BABc dBAF|\
d2fd cdec|defd|faa2|bgaf gefd|BABc dBAF|]
